X:3512
T:Coxheath March. BF11.42
M:4/4
Q:100
C:Browne A hand
S:MS11,c1800?.,Browne Coll.,Lakes
R:March
O:England
A:Lakes
Z:vmp.Chris Partington
K:D
A2|d>ef-d dcBA|BcdB BAGF|G>ABc dedc|A>BAG F2EA|!
d>efd d>cBA|^GABc defg|a>fec B>ABc|A2AAA2::!
(A/B/c/d/)|e>fecA2de|f>gfdB2gf|edcB dcB^A|B2BBB2dB|!
A>BAF A>BAF|A>BAFA2fg|afdf e>def|d2ddd2:|]


